lib/logo_tmp/nrk-logo-nrk-tv-on-dark.svg

<svg width="70" height="16" viewBox="0 0 70 16" fill="none" xmlns="http://www.w3.org/2000/svg">
<path d="M0 15.0001V1.00135H4.59339V15.0001H0ZM10.8428 3.22932L13.4844 15.0001H8.45737L5.30307 1.00135H8.12254C8.76907 0.992962 9.39641 1.22087 9.88691 1.6422C10.3782 2.04586 10.7158 2.60623 10.8428 3.22932ZM14.1744 15.0001V1.00135H18.7678V15.0001H14.1744ZM22.2372 6.32486C21.7422 6.32969 21.2552 6.20018 20.828 5.95021C20.4064 5.70655 20.0563 5.35637 19.8127 4.93478C19.5624 4.50747 19.4329 4.0203 19.4378 3.52512C19.4321 3.03295 19.5618 2.54869 19.8127 2.12525C20.0589 1.70824 20.4086 1.36186 20.828 1.11969C21.2553 0.870001 21.7423 0.740515 22.2372 0.745029C22.7292 0.73973 23.2133 0.869332 23.6369 1.11969C24.0521 1.36398 24.3981 1.71007 24.6424 2.12525C24.893 2.54881 25.0226 3.03299 25.0172 3.52512C25.0218 4.02026 24.8923 4.50735 24.6424 4.93478C24.4007 5.35452 24.0542 5.70441 23.6369 5.95021C23.2133 6.20105 22.7289 6.33069 22.2366 6.32486H22.2372ZM25.7269 15.0001V1.00135H30.3207V15.0001H25.7269ZM36.136 8.65135C36.1489 8.66494 36.2475 8.82594 36.4317 9.1344C36.6159 9.44285 36.8558 9.83721 37.1513 10.3174C37.447 10.7974 37.759 11.3067 38.0874 11.8454C38.4157 12.3841 38.7247 12.8935 39.0143 13.3735C39.3028 13.8535 39.6313 14.3957 40 15.0001H34.9531C34.6375 14.4875 34.3515 14.0241 34.0952 13.6101C33.8389 13.196 33.5665 12.7491 33.2778 12.2693C32.9884 11.79 32.7024 11.3234 32.4196 10.8695C32.1368 10.4155 31.8938 10.018 31.6905 9.67665C31.4863 9.33512 31.3449 9.10506 31.2663 8.98654C31.0713 8.69243 30.9559 8.35276 30.9315 8.00072C30.951 7.66284 31.0597 7.33622 31.2466 7.05404C31.3254 6.9226 31.47 6.68925 31.6803 6.35407C31.8906 6.01889 32.137 5.62131 32.4196 5.16126C32.7021 4.70121 32.9882 4.23129 33.2778 3.75152C33.5674 3.27175 33.8398 2.82152 34.0952 2.4009C34.3519 1.98072 34.6379 1.5141 34.9531 1.00103H40L36.0962 7.36949C35.9754 7.55857 35.9073 7.77648 35.8991 8.00072C35.9121 8.23612 35.9942 8.46245 36.1353 8.65135H36.136Z" fill="white"/>
<path d="M45.3334 2.75565H49.879V14.9785H51.9632V2.75565H56.4889V1.02637H45.3334V2.75565Z" fill="#8BB5EB"/>
<path d="M67.4459 1.02637L64.4883 9.71207C64.3421 10.1575 64.1931 10.6291 64.0414 11.1269C63.8896 11.6248 63.7442 12.1226 63.605 12.6204C63.5329 12.8774 63.4638 13.1254 63.3976 13.3645C63.3281 13.112 63.255 12.852 63.1783 12.5811C63.032 12.0702 62.883 11.5625 62.7313 11.0582C62.5796 10.5538 62.4241 10.0789 62.2648 9.63347L59.3668 1.02637H57.1436L62.0266 14.9785H64.6071L69.51 1.02637H67.4459Z" fill="#8BB5EB"/>
</svg>

<svg xmlns="http://www.w3.org/2000/svg" viewBox="0 0 70 16"><path fill="#fff" d="M0 15V1.001h4.593v14H0ZM10.843 3.23 13.484 15H8.457L5.303 1.001h2.82a2.655 2.655 0 0 1 1.764.641c.491.404.829.964.956 1.587ZM14.174 15V1.001h4.594v14h-4.594Zm8.063-8.675a2.737 2.737 0 0 1-1.409-.375 2.778 2.778 0 0 1-1.015-1.015 2.735 2.735 0 0 1-.375-1.41 2.685 2.685 0 0 1 .375-1.4 2.812 2.812 0 0 1 3.824-1.005c.415.244.761.59 1.005 1.005.251.424.38.908.375 1.4.005.495-.125.982-.375 1.41a2.8 2.8 0 0 1-1.005 1.015c-.424.251-.908.38-1.4.375ZM25.727 15V1.001h4.594v14h-4.594Zm10.409-6.349c.013.014.111.175.296.483.184.309.424.703.72 1.183a384.573 384.573 0 0 1 1.862 3.056c.289.48.617 1.023.986 1.627h-5.047l-.858-1.39c-.256-.414-.529-.86-.817-1.34-.29-.48-.576-.947-.858-1.4a71.337 71.337 0 0 1-.73-1.193 21.112 21.112 0 0 0-.424-.69A2.04 2.04 0 0 1 30.932 8c.019-.338.128-.665.315-.947.078-.131.223-.365.433-.7a216.7 216.7 0 0 0 1.598-2.603l.817-1.35.858-1.4H40l-3.904 6.368c-.12.19-.189.407-.197.632.013.235.095.461.236.65h.001Z"/><path fill="#8BB5EB" d="M45.333 2.756h4.546v12.223h2.084V2.755h4.526v-1.73H45.333v1.73ZM67.446 1.026l-2.958 8.686a69.648 69.648 0 0 0-.883 2.908l-.207.745-.22-.784a119.27 119.27 0 0 0-.447-1.523c-.151-.504-.307-.98-.466-1.425l-2.898-8.607h-2.223l4.883 13.953h2.58L69.51 1.026h-2.064Z"/></svg>
